X: 3343
T: Bøhmer-Dans
B:[[Notböcker/Melodier til gamle danske Almuedanse for Violin solo]]
O:Danmark
Z:Søren Bak Vestergaard
M: 2/4
L: 1/16
K: C
cdef gag^f|g2c'2 g2e2|cdef gag^f|g2c'2 g4:| |:=f2(fe) d2(dc)|\
B2(BA) G2G2|f2(fe) d2(dc)|B2(BA) G4:| |:d4 g4|(ef)(de) c2c2|d4 g4|(ef)(de) c4:|
(:musicend:)
(:music:)
